X:11
T:The Moray Reel
%
P:Here's a health to ane I lo'e dear
C:Traditional
R:Jig (8x32)
B:RSCDS Gr-11
Z:Anselm Lingnau <anselm@strathspey.org>
M:6/8
L:1/8
K:D
f/e/|"D"d2A "G"B>AF|"D"A3-A2 f/e/|d2A "G"Bgf|"A"e3-e2fe|
     "D"d2A "G"B>cd|"A"cBA "Bm"d2 A/G/|"D"F>DF "A7"E>CE|"D"D3 z2||
F|"D"A>AA BAF|"D"A3-A2 F|A>AA "G"Bg"E7"f|"A"e3-e2 A|
  "D"A>BA "G"Bcd|"A"c>BA "Bm"d2 A/G/|"D"F>DF "A7"E>CE|"D"D3 z2|]
